X: 1869
T: Armand's
R: polka
M: 2/4
K: Amajor
B/A/|Gd dc/B/|ce ed|Gd dc/B/|cA A/B/A/D/|
Gd- dc/B/|ce e/^d/e/f/|gd d/e/d/c/|B/c/d G/c/B/A/|
Gd dB|ce ed|Gd- dc/B/|cA A/B/c/d/|
gd dc/B/|ce- e/^d/e/f/|gd d/e/d/c/|Bd G||
|:(3d/e/f/|ge dc/B/|ce Af|g/f/e dc/B/|ca ab/a/|
g/f/e dc/B/|AB c/d/f/a/|ge d/e/d/c/|B/c/d G:|

